Origami/64x64/apps/maxthon-browser.svg

<svg width="64" height="64" version="1" xmlns="http://www.w3.org/2000/svg">
 <path d="m4 56v2c0 1.662 1.338 3 3 3h50c1.662 0 3-1.338 3-3v-2c0 1.662-1.338 3-3 3h-50c-1.662 0-3-1.338-3-3z" style="opacity:.2"/>
 <rect transform="matrix(0,-1,-1,0,0,0)" x="-60" y="-60" width="56" height="56" rx="3" ry="3" style="fill:#1da6e8"/>
 <g transform="matrix(2,0,0,2,0,1)" style="opacity:.2">
  <path d="m7 9v14h5v-9h8v9h5v-9.625c0-3.5301-3.467-4.375-4.909-4.375z"/>
  <path d="m14 17v4h4v-4z"/>
 </g>
 <path d="m7 4c-1.662 0-3 1.338-3 3v1c0-1.662 1.338-3 3-3h50c1.662 0 3 1.338 3 3v-1c0-1.662-1.338-3-3-3h-50z" style="fill:#ffffff;opacity:.1"/>
 <path d="m14 18v28h10v-18h16v18h10v-19.25c0-7.0602-6.934-8.75-9.818-8.75z" style="fill:#ffffff"/>
 <path d="m28 34v8h8v-8z" style="fill:#ffffff"/>
</svg>

<svg xmlns="http://www.w3.org/2000/svg" width="64" height="64" version="1">
 <path style="opacity:0.2" d="m 4,56 0,2 c 0,1.662 1.338,3 3,3 l 50,0 c 1.662,0 3,-1.338 3,-3 l 0,-2 c 0,1.662 -1.338,3 -3,3 L 7,59 C 5.338,59 4,57.662 4,56 Z"/>
 <rect style="fill:#1da6e8" width="56" height="56" x="-60" y="-60" rx="3" ry="3" transform="matrix(0,-1,-1,0,0,0)"/>
 <g style="opacity:0.2" transform="matrix(2,0,0,2,0,1)">
  <path d="m 7,9 0,14 5,0 0,-9 8,0 0,9 5,0 0,-9.625 C 25,9.8449 21.533,9 20.091,9 Z"/>
  <path d="m 14,17 0,4 4,0 0,-4 z"/>
 </g>
 <path style="opacity:0.1;fill:#ffffff" d="M 7 4 C 5.338 4 4 5.338 4 7 L 4 8 C 4 6.338 5.338 5 7 5 L 57 5 C 58.662 5 60 6.338 60 8 L 60 7 C 60 5.338 58.662 4 57 4 L 7 4 z"/>
 <path style="fill:#ffffff" d="m 14,18 0,28 10,0 0,-18 16,0 0,18 10,0 0,-19.25 C 50,19.6898 43.066,18 40.182,18 Z"/>
 <path style="fill:#ffffff" d="m 28,34 0,8 8,0 0,-8 z"/>
</svg>
